static/svg/moremoji/eww.svg

<?xml version="1.0" encoding="UTF-8" standalone="no"?>
<svg
   xmlns:osb="http://www.openswatchbook.org/uri/2009/osb"
   xmlns:dc="http://purl.org/dc/elements/1.1/"
   xmlns:cc="http://creativecommons.org/ns#"
   xmlns:rdf="http://www.w3.org/1999/02/22-rdf-syntax-ns#"
   xmlns:svg="http://www.w3.org/2000/svg"
   xmlns="http://www.w3.org/2000/svg"
   xmlns:sodipodi="http://sodipodi.sourceforge.net/DTD/sodipodi-0.dtd"
   xmlns:inkscape="http://www.inkscape.org/namespaces/inkscape"
   viewBox="0 0 45 45"
   style="enable-background:new 0 0 45 45;"
   xml:space="preserve"
   version="1.1"
   id="svg2"
   inkscape:version="0.91 r13725"
   sodipodi:docname="eww.svg"
   inkscape:export-filename="C:\Users\Soyez\Desktop\Stuff\My Art\somoji\eww.png"
   inkscape:export-xdpi="1024"
   inkscape:export-ydpi="1024"><sodipodi:namedview
     pagecolor="#ffffff"
     bordercolor="#666666"
     borderopacity="1"
     objecttolerance="10"
     gridtolerance="10"
     guidetolerance="10"
     inkscape:pageopacity="0"
     inkscape:pageshadow="2"
     inkscape:window-width="1920"
     inkscape:window-height="1031"
     id="namedview6057"
     showgrid="false"
     inkscape:zoom="8.0000002"
     inkscape:cx="5.1985433"
     inkscape:cy="3.2476018"
     inkscape:window-x="-8"
     inkscape:window-y="-8"
     inkscape:window-maximized="1"
     inkscape:current-layer="svg2"
     showguides="false" /><metadata
     id="metadata8"><rdf:RDF><cc:Work
         rdf:about=""><dc:format>image/svg+xml</dc:format><dc:type
           rdf:resource="http://purl.org/dc/dcmitype/StillImage" /><dc:title /></cc:Work></rdf:RDF></metadata><defs
     id="defs6"><linearGradient
       id="linearGradient7108"
       osb:paint="solid"><stop
         style="stop-color:#bdddf4;stop-opacity:1;"
         offset="0"
         id="stop7110" /></linearGradient><clipPath
       id="clipPath16"
       clipPathUnits="userSpaceOnUse"><path
         id="path18"
         d="M 0,36 36,36 36,0 0,0 0,36 Z" /></clipPath></defs><g
     id="g44-2-1-2"
     transform="matrix(-2.9187476,0,0,-2.9187476,26.919492,20.345569)"
     style="fill:#664500;fill-opacity:1" /><path
     id="path22"
     style="fill:#ffcc4d;fill-opacity:1;fill-rule:nonzero;stroke:none"
     d="m 45.029271,22.5 c 0,12.42625 -10.07375,22.5 -22.5,22.5 -12.425,0 -22.5,-10.07375 -22.5,-22.5 0,-12.425 10.075,-22.5 22.5,-22.5 12.42625,0 22.5,10.075 22.5,22.5"
     inkscape:connector-curvature="0"
     inkscape:export-filename="C:\Users\Soyez\Desktop\Stuff\My Art\somoji\cold.png"
     inkscape:export-xdpi="1024"
     inkscape:export-ydpi="1024" /><g
     id="g32-0"
     transform="matrix(-1.7740142,0,0,-2.3910404,57.1523,49.399652)"
     inkscape:export-xdpi="1024"
     inkscape:export-ydpi="1024" /><g
     id="g4162"
     transform="translate(-5.375e-5,0)"><g
       inkscape:export-ydpi="1024"
       inkscape:export-xdpi="1024"
       inkscape:export-filename="C:\Users\Soyez\Desktop\Stuff\My Art\somoji\cold.png"
       transform="matrix(1.25,0,0,-1.25,36.279325,17.135955)"
       id="g24"><path
         id="path26"
         style="fill:#664500;fill-opacity:1;fill-rule:nonzero;stroke:none"
         d="m 0,0 c -5.554,0 -7.802,4.367 -7.895,4.553 -0.247,0.494 -0.046,1.095 0.448,1.342 0.493,0.245 1.092,0.047 1.34,-0.444 C -6.033,5.306 -4.287,2 0,2 0.553,2 1,1.552 1,1 1,0.448 0.553,0 0,0"
         inkscape:connector-curvature="0" /></g><g
       inkscape:export-ydpi="1024"
       inkscape:export-xdpi="1024"
       inkscape:export-filename="C:\Users\Soyez\Desktop\Stuff\My Art\somoji\cold.png"
       transform="matrix(1.25,0,0,-1.25,8.7793245,17.135955)"
       id="g28"><path
         id="path30"
         style="fill:#664500;fill-opacity:1;fill-rule:nonzero;stroke:none"
         d="M 0,0 C -0.552,0 -1,0.448 -1,1 -1,1.552 -0.552,2 0,2 5.083,2 5.996,5.12 6.033,5.253 6.178,5.781 6.725,6.101 7.252,5.962 7.782,5.823 8.103,5.289 7.97,4.757 7.921,4.563 6.704,0 0,0"
         inkscape:connector-curvature="0" /></g></g><g
     style="stroke:#bdddf4;stroke-width:1.27999997;stroke-linecap:butt;stroke-linejoin:bevel;stroke-miterlimit:4;stroke-dasharray:none;stroke-opacity:1"
     id="g92-3"
     transform="matrix(1.25,0,0,1.25,34.033561,4.040751)" /><g
     id="g4200"
     transform="translate(-14.345729,-22.539027)"><g
       inkscape:export-ydpi="1024"
       inkscape:export-xdpi="1024"
       transform="matrix(1.0691744,0,0,1,12.713223,21.945605)"
       id="g4360"><g
         id="g32-4"
         transform="matrix(1.7740142,0,0,-2.3910404,32.346067,39.031167)"><path
           inkscape:connector-curvature="0"
           d="m -5.485,4.379 c -2.950188,0 -6.919165,-4.59514965 -4.0879806,-4.59514965 0.9803738,0.0269127 0.4629812,0.29910453 4.1069812,0.29910453"
           style="fill:#664500;fill-opacity:1;fill-rule:nonzero;stroke:none"
           id="path34-9"
           sodipodi:nodetypes="ccc" /></g><g
         id="g32-5"
         transform="matrix(-1.7740142,0,0,-2.3910404,12.851007,39.031167)"><path
           inkscape:connector-curvature="0"
           d="m -5.485,4.379 c -2.950188,0 -6.919165,-4.59514965 -4.0879806,-4.59514965 0.9803738,0.0269127 0.4629812,0.29910453 4.1069812,0.29910453"
           style="fill:#664500;fill-opacity:1;fill-rule:nonzero;stroke:none"
           id="path34-24"
           sodipodi:nodetypes="ccc" /></g></g><path
       sodipodi:nodetypes="sssss"
       id="path58-7-6"
       style="fill:#e75a70;fill-opacity:1;fill-rule:nonzero;stroke:none"
       d="m 36.903445,64.179364 c -5.811847,-0.01165 -6.024758,-8.476711 -2.457665,-8.476711 0.939821,0 1.498089,0.932503 2.42536,0.932503 0.779144,0 1.515632,-0.892932 2.481679,-0.892932 3.46739,0 3.33072,8.448722 -2.449374,8.43714 z"
       inkscape:connector-curvature="0" /></g><g
     id="g4155"><g
       inkscape:export-ydpi="1024"
       inkscape:export-xdpi="1024"
       inkscape:export-filename="C:\Users\Soyez\Desktop\Stuff\My Art\somoji\cold.png"
       transform="matrix(1.25,0,0,-1.25,7.5305745,29.187525)"
       id="g32"><path
         id="path34"
         style="fill:#664500;fill-opacity:1;fill-rule:nonzero;stroke:none"
         d="m 0,0 c -0.304,0 -0.604,0.138 -0.801,0.4 -0.331,0.442 -0.242,1.069 0.2,1.4 C -0.458,1.907 2.35,3.982 6.255,4.732 3.78,5.973 1.033,6 0.998,6 0.446,6.001 -0.001,6.45 0,7.001 0,7.553 0.447,8 0.999,8 1.22,8 6.451,7.962 9.706,4.707 9.992,4.421 10.078,3.991 9.923,3.617 9.768,3.243 9.403,3 8.999,3 4.386,3 0.636,0.227 0.599,0.2 0.419,0.065 0.208,0 0,0"
         inkscape:connector-curvature="0" /></g><g
       inkscape:export-ydpi="1024"
       inkscape:export-xdpi="1024"
       inkscape:export-filename="C:\Users\Soyez\Desktop\Stuff\My Art\somoji\cold.png"
       transform="matrix(1.25,0,0,-1.25,37.528075,29.186275)"
       id="g36"><path
         id="path38"
         style="fill:#664500;fill-opacity:1;fill-rule:nonzero;stroke:none"
         d="m 0,0 c -0.208,0 -0.418,0.064 -0.598,0.198 -0.038,0.028 -3.811,2.801 -8.401,2.801 -0.404,0 -0.77,0.243 -0.924,0.617 -0.155,0.374 -0.069,0.804 0.217,1.09 3.256,3.255 8.486,3.293 8.707,3.293 C -0.447,7.999 -0.001,7.552 0,7 0.001,6.449 -0.446,6 -0.997,5.999 -1.033,5.999 -3.78,5.972 -6.255,4.731 -2.35,3.981 0.458,1.906 0.601,1.799 1.042,1.468 1.132,0.843 0.802,0.4 0.605,0.139 0.305,0 0,0"
         inkscape:connector-curvature="0" /></g></g></svg>

<svg xmlns="http://www.w3.org/2000/svg" xml:space="preserve" viewBox="0 0 45 45"><path d="M45.03 22.5c0 12.426-10.074 22.5-22.5 22.5S.03 34.926.03 22.5 10.103 0 22.53 0s22.5 10.075 22.5 22.5" style="fill:#ffcc4d;fill-opacity:1;fill-rule:nonzero;stroke:none"/><path d="M0 0c-5.554 0-7.802 4.367-7.895 4.553a1 1 0 0 0 1.788.898C-6.033 5.306-4.287 2 0 2a1 1 0 1 0 0-2" style="fill:#664500;fill-opacity:1;fill-rule:nonzero;stroke:none" transform="matrix(1.25 0 0 -1.25 36.28 17.136)"/><path d="M0 0a1 1 0 0 0 0 2c5.083 0 5.996 3.12 6.033 3.253.145.528.692.848 1.219.709a.995.995 0 0 0 .718-1.205C7.921 4.563 6.704 0 0 0" style="fill:#664500;fill-opacity:1;fill-rule:nonzero;stroke:none" transform="matrix(1.25 0 0 -1.25 8.78 17.136)"/><path d="M-5.485 4.379c-2.95 0-6.92-4.595-4.088-4.595.98.027.463.299 4.107.299" style="fill:#664500;fill-opacity:1;fill-rule:nonzero;stroke:none" transform="matrix(1.89673 0 0 -2.39104 32.951 38.438)"/><path d="M-5.485 4.379c-2.95 0-6.92-4.595-4.088-4.595.98.027.463.299 4.107.299" style="fill:#664500;fill-opacity:1;fill-rule:nonzero;stroke:none" transform="matrix(-1.89673 0 0 -2.39104 12.107 38.438)"/><path d="M36.903 64.18c-5.811-.012-6.024-8.477-2.457-8.477.94 0 1.498.932 2.425.932.78 0 1.516-.893 2.482-.893 3.467 0 3.33 8.449-2.45 8.437" style="fill:#e75a70;fill-opacity:1;fill-rule:nonzero;stroke:none" transform="translate(-14.346 -22.539)"/><path d="M0 0a1 1 0 0 0-.601 1.8c.143.107 2.951 2.182 6.856 2.932C3.78 5.973 1.033 6 .998 6a1 1 0 0 0 .001 2c.221 0 5.452-.038 8.707-3.293A1 1 0 0 0 8.999 3C4.386 3 .636.227.599.2A1 1 0 0 0 0 0" style="fill:#664500;fill-opacity:1;fill-rule:nonzero;stroke:none" transform="matrix(1.25 0 0 -1.25 7.53 29.188)"/><path d="M0 0a1 1 0 0 0-.598.198c-.038.028-3.811 2.801-8.401 2.801a.999.999 0 0 0-.707 1.707C-6.45 7.961-1.22 7.999-.999 7.999a1 1 0 0 0 .002-2c-.036 0-2.783-.027-5.258-1.268C-2.35 3.981.458 1.906.601 1.799A1 1 0 0 0 0 0" style="fill:#664500;fill-opacity:1;fill-rule:nonzero;stroke:none" transform="matrix(1.25 0 0 -1.25 37.528 29.186)"/></svg>
